!!!OTL: ACH JOSEPH LIEBER JOSEPH
!!!ARE: Europa, Mitteleuropa, Deutschland, Brandenburg
!!!SCT: E0056A
!!!YEM: Copyright 1995, estate of Helmut Schaffrath.
**kern
*ICvox
*Ivox
*M3/4
*k[f#]
*G:
{4d
=1
8g
8b
4dd
8b
8g
=2
8f#
8a
4cc}
{8g
8b
=3
4dd
4dd
8cc
8b
=4
2a}
{4b
=5
4cc
4ee
8cc
8a
=6
4b
4dd}
{8b
8g
=7
4a
4dd
8cc
8a
=8
2b}
{4b
=9
4cc
4ee
8cc
8a
=10
4b
4dd}
{8b
8g
=11
4a
4dd
8cc
8a
=12
2g}
==
!!!AGN: erzaehlendes Volks - Lied, Sage, Kinds - Mord, Ballade ?
!!!ONB: ESAC (Essen Associative Code) Database: ERK1
!!!AMT: simple triple
!!!AIN: vox
!!!EED: Helmut Schaffrath
!!!EEV: 1.0
*-
